;generated by ffslicer 2.2.2 08/04/24 13:35:59
;machine_type: Adventurer 3 Series
;right_extruder_material: PLA
;right_extruder_material_density: 1.24
;filament_diameter0: 1.75
;right_extruder_temperature: 210
;layer_height: 0.18
;perimeter_shells: 2
;top_solid_layers: 4
;bottom_solid_layers: 3
;fill_density: 15%
;fill_pattern: hexagon
;base_print_speed: 60
;travel_speed: 80
;platform_temperature: 50
;right_extruder_temperature_raft0: 0
;right_extruder_temperature_reset: 
;left_extruder_temperature_reset: 
;start gcode
M118 X16.06 Y22.50 Z14.10 T0
M140 S50 T0
M104 S210 T0
M104 S0 T1
M107
G90
G28
M132 X Y Z A B
G1 Z50.000 F420
G161 X Y F3300
M7 T0
M6 T0
M651 S255
;layer_count: 77
M108 T0
G1 X12.00 Y-16.80 F4800
;preExtrude:0.20
M106
G1 Z.200 F420
;structure:pre-extrude
G1 X12.00 Y-16.80 F4800
G1 X12.00 Y-12.71 E.5931 F1200
G1 X.64 Y22.50 E5.9582
G1 X-6.32 Y22.50 E6.9675
G1 X-7.38 Y22.37 E7.1224
G1 X-8.65 Y21.92 E7.3178
G1 X-9.79 Y21.19 E7.5141
G1 X-10.74 Y20.23 E7.7099
G1 X-11.44 Y19.09 E7.9039
G1 X-11.94 Y17.68 E8.1209
G1 X-12.00 Y16.24 E8.3299
G1 X-12.00 Y-16.81 E13.1226
G1 X-11.87 Y-17.88 E13.2789
G1 X-11.42 Y-19.15 E13.4743
G1 X-10.69 Y-20.29 E13.6706
G1 X-9.73 Y-21.24 E13.8665
G1 X-8.60 Y-21.94 E14.0592
G1 X-7.17 Y-22.44 E14.2789
G1 X-5.71 Y-22.50 E14.4908
G1 X6.31 Y-22.50 E16.2339
G1 X7.39 Y-22.37 E16.3916
G1 X8.65 Y-21.92 E16.5856
G1 X9.79 Y-21.19 E16.7819
G1 X10.73 Y-20.24 E16.9757
G1 X11.44 Y-19.09 E17.1717
G1 X11.88 Y-17.85 E17.3625
G1 X12.00 Y-16.80 E17.5158
;raft
;layer:0.28
G1 E12.5158 F1500
G1 Z.280 F420
G1 X6.40 Y-16.47 F4200
G1 E17.5158 F1500
;structure:shell-inner
G1 X6.40 Y-16.47 F4200
G1 X6.40 Y-14.10 E17.6361 F600
G1 X-1.23 Y-14.10 E18.0233
G1 X-3.60 Y-14.10 E18.1436
G1 X-3.60 Y-6.46 E18.5314
G1 X-3.60 Y3.54 E19.0389
G1 X-3.60 Y13.54 E19.5465
G1 X-3.60 Y16.90 E19.7170
G1 X-5.95 Y16.90 E19.8363
G1 X-6.17 Y16.85 E19.8478
G1 X-6.31 Y16.74 E19.8568
G1 X-6.38 Y16.58 E19.8657
G1 X-6.40 Y16.13 E19.8885
G1 X-6.40 Y12.87 E20.0540
G1 X-6.40 Y-16.45 E21.5421
G1 X-6.35 Y-16.67 E21.5536
G1 X-6.24 Y-16.81 E21.5626
G1 X-6.09 Y-16.88 E21.5710
G1 X-5.58 Y-16.90 E21.5969
G1 X-3.46 Y-16.90 E21.7045
G1 X-1.46 Y-16.90 E21.8060
G1 X.54 Y-16.90 E21.9075
G1 X2.54 Y-16.90 E22.0090
G1 X4.54 Y-16.90 E22.1106
G1 X5.95 Y-16.90 E22.1821 F540
G1 X6.17 Y-16.85 E22.1936
G1 X6.30 Y-16.74 E22.2022
G1 X6.37 Y-16.56 E22.2120
;structure:shell-outer
G1 X6.80 Y-16.49 E22.2120 F300
G1 X6.80 Y-13.70 E22.3536 F600
G1 X-3.20 Y-13.70 E22.8612
G1 X-3.20 Y17.30 E24.4346
G1 X-6.00 Y17.30 E24.5767
G1 X-6.35 Y17.22 E24.5949
G1 X-6.63 Y16.99 E24.6133
G1 X-6.78 Y16.68 E24.6308
G1 X-6.80 Y16.13 E24.6587
G1 X-6.80 Y-16.49 E26.3143
G1 X-6.72 Y-16.85 E26.3331
G1 X-6.49 Y-17.13 E26.3514
G1 X-6.18 Y-17.28 E26.3689
G1 X-5.60 Y-17.30 E26.3984
G1 X5.99 Y-17.30 E26.9866
G1 X6.35 Y-17.22 E27.0053
G1 X6.63 Y-16.99 E27.0237
G1 X6.78 Y-16.68 E27.0412
G1 X6.79 Y-16.59 E27.0458
G1 X6.37 Y-16.56 E27.0529 F300
;structure:infill-solid
G1 X5.99 Y-16.52 F4200
G1 X6.06 Y-16.41 E27.0595 F600
G1 X6.06 Y-15.88 E27.0864
G1 X5.38 Y-16.56 E27.1352
G1 X4.81 Y-16.56 E27.1642
G1 X6.06 Y-15.31 E27.2539
G1 X6.06 Y-14.74 E27.2828
G1 X4.24 Y-16.56 E27.4135
G1 X3.67 Y-16.56 E27.4424
G1 X5.79 Y-14.44 E27.5946
G1 X5.22 Y-14.44 E27.6235
G1 X3.10 Y-16.56 E27.7757
G1 X2.53 Y-16.56 E27.8046
G1 X4.65 Y-14.44 E27.9568
G1 X4.08 Y-14.44 E27.9857
G1 X1.96 Y-16.56 E28.1379
G1 X1.39 Y-16.56 E28.1668
G1 X3.51 Y-14.44 E28.3190
G1 X2.94 Y-14.44 E28.3479
G1 X.82 Y-16.56 E28.5001
G1 X.25 Y-16.56 E28.5290
G1 X2.37 Y-14.44 E28.6812
G1 X1.80 Y-14.44 E28.7101
G1 X-.32 Y-16.56 E28.8623
G1 X-.89 Y-16.56 E28.8912
G1 X1.23 Y-14.44 E29.0434
G1 X.66 Y-14.44 E29.0723
G1 X-1.46 Y-16.56 E29.2245
G1 X-2.03 Y-16.56 E29.2534
G1 X.09 Y-14.44 E29.4056
G1 X-.48 Y-14.44 E29.4345
G1 X-2.60 Y-16.56 E29.5867
G1 X-3.17 Y-16.56 E29.6156
G1 X-1.05 Y-14.44 E29.7678
G1 X-1.62 Y-14.44 E29.7967
G1 X-3.74 Y-16.56 E29.9489
G1 X-4.31 Y-16.56 E29.9778
G1 X-2.19 Y-14.44 E30.1300
G1 X-2.76 Y-14.44 E30.1589
G1 X-4.88 Y-16.56 E30.3111
G1 X-5.45 Y-16.56 E30.3400
G1 X-3.33 Y-14.44 E30.4922
G1 X-3.90 Y-14.44 E30.5211
G1 X-5.98 Y-16.52 E30.6704
G1 X-6.06 Y-16.38 E30.6786
G1 X-6.06 Y-16.03 E30.6963
G1 X-3.94 Y-13.91 E30.8485
G1 X-3.94 Y-13.34 E30.8774
G1 X-6.06 Y-15.46 E31.0296
G1 X-6.06 Y-14.89 E31.0585
G1 X-3.94 Y-12.77 E31.2107
G1 X-3.94 Y-12.20 E31.2396
G1 X-6.06 Y-14.32 E31.3918
G1 X-6.06 Y-13.75 E31.4207
G1 X-3.94 Y-11.63 E31.5729
G1 X-3.94 Y-11.06 E31.6018
G1 X-6.06 Y-13.18 E31.7540
G1 X-6.06 Y-12.61 E31.7829
G1 X-3.94 Y-10.49 E31.9351
G1 X-3.94 Y-9.92 E31.9640
G1 X-6.06 Y-12.04 E32.1162
G1 X-6.06 Y-11.47 E32.1451
G1 X-3.94 Y-9.35 E32.2973
G1 X-3.94 Y-8.78 E32.3262
G1 X-6.06 Y-10.90 E32.4784
G1 X-6.06 Y-10.33 E32.5073
G1 X-3.94 Y-8.21 E32.6595
G1 X-3.94 Y-7.64 E32.6884
G1 X-6.06 Y-9.76 E32.8406
G1 X-6.06 Y-9.19 E32.8695
G1 X-3.94 Y-7.07 E33.0217
G1 X-3.94 Y-6.50 E33.0506
G1 X-6.06 Y-8.62 E33.2028
G1 X-6.06 Y-8.05 E33.2317
G1 X-3.94 Y-5.93 E33.3839
G1 X-3.94 Y-5.36 E33.4128
G1 X-6.06 Y-7.48 E33.5650
G1 X-6.06 Y-6.91 E33.5939
G1 X-3.94 Y-4.79 E33.7461
G1 X-3.94 Y-4.22 E33.7750
G1 X-6.06 Y-6.34 E33.9272
G1 X-6.06 Y-5.77 E33.9561
G1 X-3.94 Y-3.65 E34.1083
G1 X-3.94 Y-3.08 E34.1372
G1 X-6.06 Y-5.20 E34.2894
G1 X-6.06 Y-4.63 E34.3183
G1 X-3.94 Y-2.51 E34.4705
G1 X-3.94 Y-1.94 E34.4994
G1 X-6.06 Y-4.06 E34.6516
G1 X-6.06 Y-3.49 E34.6805
G1 X-3.94 Y-1.37 E34.8327
G1 X-3.94 Y-.80 E34.8616
G1 X-6.06 Y-2.92 E35.0138
G1 X-6.06 Y-2.35 E35.0427
G1 X-3.94 Y-.23 E35.1949
G1 X-3.94 Y.34 E35.2238
G1 X-6.06 Y-1.78 E35.3760
G1 X-6.06 Y-1.21 E35.4049
G1 X-3.94 Y.91 E35.5571
G1 X-3.94 Y1.48 E35.5860
G1 X-6.06 Y-.64 E35.7382
G1 X-6.06 Y-.07 E35.7671
G1 X-3.94 Y2.05 E35.9193
G1 X-3.94 Y2.62 E35.9483
G1 X-6.06 Y.50 E36.1004
G1 X-6.06 Y1.07 E36.1294
G1 X-3.94 Y3.19 E36.2815
G1 X-3.94 Y3.76 E36.3105
G1 X-6.06 Y1.64 E36.4626
G1 X-6.06 Y2.21 E36.4916
G1 X-3.94 Y4.33 E36.6437
G1 X-3.94 Y4.90 E36.6727
G1 X-6.06 Y2.78 E36.8248
G1 X-6.06 Y3.35 E36.8538
G1 X-3.94 Y5.47 E37.0059
G1 X-3.94 Y6.04 E37.0349
G1 X-6.06 Y3.92 E37.1870
G1 X-6.06 Y4.49 E37.2160
G1 X-3.94 Y6.61 E37.3681
G1 X-3.94 Y7.18 E37.3971
G1 X-6.06 Y5.06 E37.5492
G1 X-6.06 Y5.63 E37.5782
G1 X-3.94 Y7.75 E37.7303
G1 X-3.94 Y8.32 E37.7593
G1 X-6.06 Y6.20 E37.9114
G1 X-6.06 Y6.77 E37.9404
G1 X-3.94 Y8.89 E38.0925
G1 X-3.94 Y9.46 E38.1215
G1 X-6.06 Y7.34 E38.2736
G1 X-6.06 Y7.91 E38.3026
G1 X-3.94 Y10.03 E38.4547
G1 X-3.94 Y10.60 E38.4837
G1 X-6.06 Y8.48 E38.6358
G1 X-6.06 Y9.05 E38.6648
G1 X-3.94 Y11.17 E38.8169
G1 X-3.94 Y11.74 E38.8459
G1 X-6.06 Y9.62 E38.9980
G1 X-6.06 Y10.19 E39.0270
G1 X-3.94 Y12.31 E39.1792
G1 X-3.94 Y12.88 E39.2081
G1 X-6.06 Y10.76 E39.3603
G1 X-6.06 Y11.33 E39.3892
G1 X-3.94 Y13.45 E39.5414
G1 X-3.94 Y14.02 E39.5703
G1 X-6.06 Y11.90 E39.7225
G1 X-6.06 Y12.47 E39.7514
G1 X-3.94 Y14.59 E39.9036
G1 X-3.94 Y15.16 E39.9325
G1 X-6.06 Y13.04 E40.0847
G1 X-6.06 Y13.61 E40.1136
G1 X-3.94 Y15.73 E40.2658
G1 X-3.94 Y16.30 E40.2947
G1 X-6.06 Y14.18 E40.4469
G1 X-6.06 Y14.75 E40.4758
G1 X-4.25 Y16.56 E40.6057
G1 X-4.82 Y16.56 E40.6346
G1 X-6.06 Y15.32 E40.7236
G1 X-6.06 Y15.89 E40.7526
G1 X-5.39 Y16.56 E40.8007
G1 X-5.89 Y16.56 E40.8260
G1 X-6.02 Y16.50 E40.8333
;layer:0.19
G1 Z.470 F420
G1 X-3.33 Y-13.83 F4800
G1 X6.40 Y-16.45
;structure:shell-inner
G1 X6.40 Y-16.45
G1 X6.40 Y-14.10 E40.9142 F2880
G1 X-1.25 Y-14.10 E41.1777
G1 X-3.60 Y-14.10 E41.2587 F3024
G1 X-3.60 Y-6.45 E41.5221
G1 X-3.60 Y3.55 E41.8665 F3168
G1 X-3.60 Y13.55 E42.2109 F3312
G1 X-3.60 Y16.90 E42.3263 F3456
G1 X-5.96 Y16.90 E42.4076
G1 X-6.17 Y16.84 E42.4151
G1 X-6.34 Y16.71 E42.4225
G1 X-6.40 Y16.45 E42.4317
G1 X-6.40 Y12.86 E42.5553
G1 X-6.40 Y-16.44 E43.5645 F3600
G1 X-6.35 Y-16.67 E43.5726
G1 X-6.21 Y-16.84 E43.5801
G1 X-5.95 Y-16.90 E43.5893
G1 X-3.44 Y-16.90 E43.6758
G1 X-1.44 Y-16.90 E43.7447 F2988
G1 X.56 Y-16.90 E43.8135 F2376
G1 X2.56 Y-16.90 E43.8824 F1764
G1 X4.56 Y-16.90 E43.9513 F1152
G1 X5.94 Y-16.90 E43.9988 F540
G1 X6.17 Y-16.84 E44.0070
G1 X6.34 Y-16.71 E44.0144
G1 X6.37 Y-16.55 E44.0200
;structure:shell-outer
G1 X6.80 Y-16.49 E44.0200 F300
G1 X6.80 Y-13.70 E44.1161 F1800
G1 X-3.20 Y-13.70 E44.4605
G1 X-3.20 Y17.30 E45.5282
G1 X-6.01 Y17.30 E45.6249
G1 X-6.36 Y17.21 E45.6374
G1 X-6.63 Y16.98 E45.6496
G1 X-6.72 Y16.84 E45.6553
G1 X-6.80 Y16.49 E45.6677
G1 X-6.80 Y-16.49 E46.8036
G1 X-6.71 Y-16.86 E46.8167
G1 X-6.48 Y-17.13 E46.8289
G1 X-6.34 Y-17.22 E46.8346
G1 X-5.99 Y-17.30 E46.8470
G1 X5.99 Y-17.30 E47.2596
G1 X6.36 Y-17.21 E47.2727
G1 X6.63 Y-16.99 E47.2847
G1 X6.72 Y-16.84 E47.2907
G1 X6.78 Y-16.59 E47.2996
G1 X6.38 Y-16.55 E47.3042 F300
G1 X6.06 Y-14.48 F4800
;structure:infill-solid
G1 X6.06 Y-14.48
G1 X6.02 Y-14.44 E47.3061 F1800
G1 X5.45 Y-14.44 E47.3258
G1 X6.06 Y-15.05 E47.3555
G1 X6.06 Y-15.62 E47.3751
G1 X4.88 Y-14.44 E47.4326
G1 X4.31 Y-14.44 E47.4522
G1 X6.06 Y-16.18 E47.5372
G1 X6.04 Y-16.50 E47.5482
G1 X5.86 Y-16.56 E47.5548
G1 X3.74 Y-14.44 E47.6580
G1 X3.17 Y-14.44 E47.6777
G1 X5.29 Y-16.56 E47.7809
G1 X4.72 Y-16.56 E47.8006
G1 X2.60 Y-14.44 E47.9038
G1 X2.04 Y-14.44 E47.9231
G1 X4.16 Y-16.56 E48.0264
G1 X3.59 Y-16.56 E48.0460
G1 X1.47 Y-14.44 E48.1492
G1 X.90 Y-14.44 E48.1689
G1 X3.02 Y-16.56 E48.2721
G1 X2.45 Y-16.56 E48.2918
G1 X.33 Y-14.44 E48.3950
G1 X-.24 Y-14.44 E48.4147
G1 X1.88 Y-16.56 E48.5179
G1 X1.31 Y-16.56 E48.5376
G1 X-.81 Y-14.44 E48.6408
G1 X-1.37 Y-14.44 E48.6601
G1 X.74 Y-16.56 E48.7631
G1 X.18 Y-16.56 E48.7824
G1 X-1.94 Y-14.44 E48.8857
G1 X-2.51 Y-14.44 E48.9053
G1 X-.39 Y-16.56 E49.0085
G1 X-.96 Y-16.56 E49.0282
G1 X-3.08 Y-14.44 E49.1314
G1 X-6.06 Y-16.01 F4800
G1 X-6.06 Y-16.01
G1 X-5.51 Y-16.56 E49.1582 F1800
G1 X-4.94 Y-16.56 E49.1779
G1 X-6.06 Y-15.44 E49.2324
G1 X-6.06 Y-14.87 E49.2520
G1 X-4.37 Y-16.56 E49.3344
G1 X-3.80 Y-16.56 E49.3540
G1 X-6.06 Y-14.30 E49.4641
G1 X-6.06 Y-13.73 E49.4837
G1 X-3.24 Y-16.56 E49.6213
G1 X-2.67 Y-16.56 E49.6409
G1 X-6.06 Y-13.16 E49.8063
G1 X-6.06 Y-12.60 E49.8256
G1 X-2.10 Y-16.56 E50.0184
G1 X-1.53 Y-16.56 E50.0381
G1 X-3.65 Y-14.44 E50.1413
G1 X-3.94 Y-14.44 E50.1513
G1 X-3.94 Y-14.15 E50.1613
G1 X-6.06 Y-12.03 E50.2646
G1 X-6.06 Y-11.46 E50.2842
G1 X-3.94 Y-13.58 E50.3875
G1 X-3.94 Y-13.01 E50.4071
G1 X-6.06 Y-10.89 E50.5104
G1 X-6.06 Y-10.32 E50.5300
G1 X-3.94 Y-12.44 E50.6332
G1 X-3.94 Y-11.87 E50.6529
G1 X-6.06 Y-9.75 E50.7561
G1 X-6.06 Y-9.19 E50.7754
G1 X-3.94 Y-11.30 E50.8784
G1 X-3.94 Y-10.74 E50.8977
G1 X-6.06 Y-8.62 E51.0010
G1 X-6.06 Y-8.05 E51.0206
G1 X-3.94 Y-10.17 E51.1239
G1 X-3.94 Y-9.60 E51.1435
G1 X-6.06 Y-7.48 E51.2468
G1 X-6.06 Y-6.91 E51.2664
G1 X-3.94 Y-9.03 E51.3697
G1 X-3.94 Y-8.46 E51.3893
G1 X-6.06 Y-6.34 E51.4925
G1 X-6.06 Y-5.77 E51.5122
G1 X-3.94 Y-7.89 E51.6154
G1 X-3.94 Y-7.32 E51.6351
G1 X-6.06 Y-5.21 E51.7381
G1 X-6.06 Y-4.64 E51.7577
G1 X-3.94 Y-6.76 E51.8610
G1 X-3.94 Y-6.19 E51.8806
G1 X-6.06 Y-4.07 E51.9839
G1 X-6.06 Y-3.50 E52.0035
G1 X-3.94 Y-5.62 E52.1068
G1 X-3.94 Y-5.05 E52.1264
G1 X-6.06 Y-2.93 E52.2296
G1 X-6.06 Y-2.36 E52.2493
G1 X-3.94 Y-4.48 E52.3525
G1 X-3.94 Y-3.91 E52.3722
G1 X-6.06 Y-1.80 E52.4752
G1 X-6.06 Y-1.23 E52.4948
G1 X-3.94 Y-3.35 E52.5981
G1 X-3.94 Y-2.78 E52.6177
G1 X-6.06 Y-.66 E52.7210
G1 X-6.06 Y-.09 E52.7406
G1 X-3.94 Y-2.21 E52.8439
G1 X-3.94 Y-1.64 E52.8635
G1 X-6.06 Y.48 E52.9668
G1 X-6.06 Y1.05 E52.9864
G1 X-3.94 Y-1.07 E53.0896
G1 X-3.94 Y-.50 E53.1093
G1 X-6.06 Y1.62 E53.2125
G1 X-6.06 Y2.18 E53.2318
G1 X-3.94 Y.07 E53.3348
G1 X-3.94 Y.63 E53.3541
G1 X-6.06 Y2.75 E53.4574
G1 X-6.06 Y3.32 E53.4770
G1 X-3.94 Y1.20 E53.5803
G1 X-3.94 Y1.77 E53.5999
G1 X-6.06 Y3.89 E53.7032
G1 X-6.06 Y4.46 E53.7228
G1 X-3.94 Y2.34 E53.8260
G1 X-3.94 Y2.91 E53.8457
G1 X-6.06 Y5.03 E53.9489
G1 X-6.06 Y5.59 E53.9682
G1 X-3.94 Y3.48 E54.0712
G1 X-3.94 Y4.04 E54.0905
G1 X-6.06 Y6.16 E54.1938
G1 X-6.06 Y6.73 E54.2134
G1 X-3.94 Y4.61 E54.3167
G1 X-3.94 Y5.18 E54.3363
G1 X-6.06 Y7.30 E54.4396
G1 X-6.06 Y7.87 E54.4592
G1 X-3.94 Y5.75 E54.5625
G1 X-3.94 Y6.32 E54.5821
G1 X-6.06 Y8.44 E54.6853
G1 X-6.06 Y9.01 E54.7050
G1 X-3.94 Y6.89 E54.8082
G1 X-3.94 Y7.46 E54.8279
G1 X-6.06 Y9.57 E54.9309
G1 X-6.06 Y10.14 E54.9505
G1 X-3.94 Y8.02 E55.0538
G1 X-3.94 Y8.59 E55.0734
G1 X-6.06 Y10.71 E55.1767
G1 X-6.06 Y11.28 E55.1963
G1 X-3.94 Y9.16 E55.2996
G1 X-3.94 Y9.73 E55.3192
G1 X-6.06 Y11.85 E55.4224
G1 X-6.06 Y12.42 E55.4421
G1 X-3.94 Y10.30 E55.5453
G1 X-3.94 Y10.87 E55.5650
G1 X-6.06 Y12.98 E55.6680
G1 X-6.06 Y13.55 E55.6876
G1 X-3.94 Y11.44 E55.7906
G1 X-3.94 Y12.00 E55.8099
G1 X-6.06 Y14.12 E55.9132
G1 X-6.06 Y14.69 E55.9328
G1 X-3.94 Y12.57 E56.0361
G1 X-3.94 Y13.14 E56.0557
G1 X-6.06 Y15.26 E56.1590
G1 X-6.06 Y15.83 E56.1786
G1 X-3.94 Y13.71 E56.2818
G1 X-3.94 Y14.28 E56.3015
G1 X-6.06 Y16.40 E56.4047
G1 X-6.04 Y16.49 E56.4079
G1 X-5.89 Y16.56 E56.4136
G1 X-5.65 Y16.56 E56.4219
G1 X-3.94 Y14.85 E56.5052
G1 X-3.94 Y15.41 E56.5245
G1 X-5.08 Y16.56 E56.5802
G1 X-4.51 Y16.56 E56.5999
G1 X-3.94 Y15.98 E56.6279
G1 X-3.94 Y16.56 E56.6478
;layer:0.19
G1 Z.660 F420
G1 X-3.33 Y-13.83 F4800
G1 X6.40 Y-16.43
;structure:shell-inner
G1 X6.40 Y-16.43
G1 X6.40 Y-14.10 E56.7281 F2880
G1 X-1.27 Y-14.10 E56.9922
G1 X-3.60 Y-14.10 E57.0725 F3024
G1 X-3.60 Y-6.43 E57.3367
G1 X-3.60 Y3.57 E57.6811 F3168
G1 X-3.60 Y13.57 E58.0255 F3312
G1 X-3.60 Y16.90 E58.1402 F3456
G1 X-5.95 Y16.90 E58.2211
G1 X-6.23 Y16.82 E58.2311
G1 X-6.38 Y16.63 E58.2395
G1 X-6.40 Y16.14 E58.2564
G1 X-6.40 Y12.84 E58.3700
G1 X-6.40 Y-16.46 E59.3791 F3600
G1 X-6.28 Y-16.78 E59.3909
G1 X-6.07 Y-16.88 E59.3989
G1 X-5.60 Y-16.90 E59.4151
G1 X-3.43 Y-16.90 E59.4899
G1 X-1.43 Y-16.90 E59.5587 F2988
G1 X.57 Y-16.90 E59.6276 F2376
G1 X2.57 Y-16.90 E59.6965 F1764
G1 X4.57 Y-16.90 E59.7654 F1152
G1 X5.96 Y-16.90 E59.8133 F540
G1 X6.24 Y-16.80 E59.8235
G1 X6.35 Y-16.66 E59.8296
G1 X6.38 Y-16.53 E59.8342
;structure:shell-outer
G1 X6.80 Y-16.48 E59.8342 F300
G1 X6.80 Y-13.70 E59.9300 F1800
G1 X-3.20 Y-13.70 E60.2744
G1 X-3.20 Y17.30 E61.3420
G1 X-6.00 Y17.30 E61.4385
G1 X-6.35 Y17.21 E61.4509
G1 X-6.51 Y17.11 E61.4574
G1 X-6.72 Y16.84 E61.4692
G1 X-6.78 Y16.68 E61.4751
G1 X-6.80 Y16.14 E61.4937
G1 X-6.80 Y-16.49 E62.6175
G1 X-6.77 Y-16.69 E62.6245
G1 X-6.62 Y-17.00 E62.6363
G1 X-6.49 Y-17.13 E62.6427
G1 X-6.17 Y-17.28 E62.6548
G1 X-5.62 Y-17.30 E62.6738
G1 X5.99 Y-17.30 E63.0736
G1 X6.19 Y-17.27 E63.0806
G1 X6.50 Y-17.12 E63.0925
G1 X6.72 Y-16.83 E63.1050
G1 X6.78 Y-16.58 E63.1139
G1 X6.38 Y-16.53 E63.1185 F300
G1 X5.94 Y-16.54 F4800
;structure:infill-solid
G1 X5.94 Y-16.54
G1 X6.06 Y-16.38 E63.1254 F1800
G1 X6.06 Y-15.85 E63.1436
G1 X5.36 Y-16.56 E63.1780
G1 X4.79 Y-16.56 E63.1976
G1 X6.06 Y-15.28 E63.2597
G1 X6.06 Y-14.71 E63.2793
G1 X4.22 Y-16.56 E63.3692
G1 X3.65 Y-16.56 E63.3888
G1 X5.77 Y-14.44 E63.4921
G1 X5.20 Y-14.44 E63.5117
G1 X3.08 Y-16.56 E63.6150
G1 X2.51 Y-16.56 E63.6346
G1 X4.63 Y-14.44 E63.7379
G1 X4.06 Y-14.44 E63.7575
G1 X1.94 Y-16.56 E63.8607
G1 X1.37 Y-16.56 E63.8804
G1 X3.49 Y-14.44 E63.9836
G1 X2.92 Y-14.44 E64.0033
G1 X.80 Y-16.56 E64.1065
G1 X.23 Y-16.56 E64.1262
G1 X2.35 Y-14.44 E64.2294
G1 X1.78 Y-14.44 E64.2491
G1 X-.34 Y-16.56 E64.3523
G1 X-.91 Y-16.56 E64.3719
G1 X1.21 Y-14.44 E64.4752
G1 X.64 Y-14.44 E64.4948
G1 X-1.48 Y-16.56 E64.5981
G1 X-2.05 Y-16.56 E64.6177
G1 X.07 Y-14.44 E64.7210
G1 X-.50 Y-14.44 E64.7406
G1 X-2.62 Y-16.56 E64.8439
G1 X-3.19 Y-16.56 E64.8635
G1 X-1.07 Y-14.44 E64.9668
G1 X-1.64 Y-14.44 E64.9864
G1 X-3.76 Y-16.56 E65.0897
G1 X-4.33 Y-16.56 E65.1093
G1 X-2.21 Y-14.44 E65.2125
G1 X-2.78 Y-14.44 E65.2322
G1 X-4.90 Y-16.56 E65.3354
G1 X-5.47 Y-16.56 E65.3551
G1 X-3.35 Y-14.44 E65.4583
G1 X-3.92 Y-14.44 E65.4780
G1 X-6.00 Y-16.52 E65.5793
G1 X-6.06 Y-16.40 E65.5839
G1 X-6.06 Y-16.00 E65.5977
G1 X-3.94 Y-13.89 E65.7007
G1 X-3.94 Y-13.32 E65.7203
G1 X-6.06 Y-15.44 E65.8236
G1 X-6.06 Y-14.87 E65.8432
G1 X-3.94 Y-12.75 E65.9465
G1 X-3.94 Y-12.18 E65.9661
G1 X-6.06 Y-14.30 E66.0693
G1 X-6.06 Y-13.73 E66.0890
G1 X-3.94 Y-11.61 E66.1922
G1 X-3.94 Y-11.04 E66.2119
G1 X-6.06 Y-13.16 E66.3151
G1 X-6.06 Y-12.59 E66.3348
G1 X-3.94 Y-10.47 E66.4380
G1 X-3.94 Y-9.90 E66.4577
G1 X-6.06 Y-12.02 E66.5609
G1 X-6.06 Y-11.45 E66.5805
G1 X-3.94 Y-9.33 E66.6838
G1 X-3.94 Y-8.76 E66.7034
