;generated by ffslicer 2.2.2 08/03/24 10:42:17
;machine_type: Adventurer 3 Series
;right_extruder_material: PLA
;right_extruder_material_density: 1.24
;filament_diameter0: 1.75
;right_extruder_temperature: 210
;layer_height: 0.18
;perimeter_shells: 2
;top_solid_layers: 4
;bottom_solid_layers: 3
;fill_density: 15%
;fill_pattern: hexagon
;base_print_speed: 60
;travel_speed: 80
;platform_temperature: 50
;right_extruder_temperature_raft0: 0
;right_extruder_temperature_reset: 
;left_extruder_temperature_reset: 
;start gcode
M118 X18.67 Y22.50 Z14.23 T0
M140 S50 T0
M104 S210 T0
M104 S0 T1
M107
G90
G28
M132 X Y Z A B
G1 Z50.000 F420
G161 X Y F3300
M7 T0
M6 T0
M651 S255
;layer_count: 78
M108 T0
G1 X9.48 Y-4.69 F4800
;preExtrude:0.20
M106
G1 Z.200 F420
;structure:pre-extrude
G1 X9.48 Y-4.69 F4800
G1 X.71 Y22.50 E4.1430 F1200
G1 X-11.94 Y22.50 E5.9774
G1 X-11.94 Y-22.50 E12.5030
G1 X12.07 Y-22.50 E15.9848
G1 X12.06 Y-12.71 E17.4045
;raft
;layer:0.27
G1 E12.4045 F1500
G1 Z.270 F420
G1 X6.46 Y-16.90 F4200
G1 E17.4045 F1500
;structure:shell-inner
G1 X6.46 Y-16.90 F4200
G1 X6.46 Y-14.10 E17.5416 F600
G1 X-.74 Y-14.10 E17.8939
G1 X-3.53 Y-14.10 E18.0305
G1 X-3.53 Y-6.90 E18.3829
G1 X-3.53 Y3.11 E18.8728
G1 X-3.53 Y13.11 E19.3622
G1 X-3.53 Y16.90 E19.5477
G1 X-6.34 Y16.90 E19.6852
G1 X-6.34 Y13.50 E19.8516
G1 X-6.34 Y-16.90 E21.3395
G1 X-3.64 Y-16.90 E21.4716
G1 X-1.64 Y-16.90 E21.5695
G1 X.36 Y-16.90 E21.6674
G1 X2.36 Y-16.90 E21.7653
G1 X4.36 Y-16.90 E21.8632
G1 X6.36 Y-16.90 E21.9610 F540
;structure:shell-outer
G1 X6.86 Y-17.30 E21.9610 F300
G1 X6.86 Y-13.70 E22.1372 F600
G1 X-3.13 Y-13.70 E22.6262
G1 X-3.13 Y17.30 E24.1434
G1 X-6.74 Y17.30 E24.3201
G1 X-6.74 Y-17.30 E26.0135
G1 X6.76 Y-17.30 E26.6742
G1 X6.36 Y-16.90 E26.6834 F300
G1 X5.70 Y-16.56 F4200
;structure:infill-solid
G1 X5.70 Y-16.56
G1 X6.12 Y-16.13 E26.7128 F600
G1 X6.12 Y-15.56 E26.7407
G1 X5.13 Y-16.56 E26.8096
G1 X4.56 Y-16.56 E26.8375
G1 X6.12 Y-15.00 E26.9454
G1 X6.11 Y-14.44 E26.9729
G1 X3.99 Y-16.56 E27.1196
G1 X3.43 Y-16.56 E27.1470
G1 X5.55 Y-14.44 E27.2937
G1 X4.98 Y-14.44 E27.3216
G1 X2.86 Y-16.56 E27.4684
G1 X2.29 Y-16.56 E27.4963
G1 X4.41 Y-14.44 E27.6430
G1 X3.85 Y-14.44 E27.6704
G1 X1.73 Y-16.56 E27.8171
G1 X1.16 Y-16.56 E27.8450
G1 X3.28 Y-14.44 E27.9918
G1 X2.71 Y-14.44 E28.0197
G1 X.59 Y-16.56 E28.1664
G1 X.02 Y-16.56 E28.1943
G1 X2.14 Y-14.44 E28.3410
G1 X1.58 Y-14.44 E28.3685
G1 X-.54 Y-16.56 E28.5152
G1 X-1.11 Y-16.56 E28.5431
G1 X1.01 Y-14.44 E28.6898
G1 X.44 Y-14.44 E28.7177
G1 X-1.68 Y-16.56 E28.8645
G1 X-2.24 Y-16.56 E28.8919
G1 X-.12 Y-14.44 E29.0386
G1 X-.69 Y-14.44 E29.0665
G1 X-2.81 Y-16.56 E29.2132
G1 X-3.38 Y-16.56 E29.2411
G1 X-1.26 Y-14.44 E29.3879
G1 X-1.83 Y-14.44 E29.4158
G1 X-3.94 Y-16.56 E29.5622
G1 X-4.51 Y-16.56 E29.5901
G1 X-2.39 Y-14.44 E29.7368
G1 X-2.96 Y-14.44 E29.7647
G1 X-5.08 Y-16.56 E29.9114
G1 X-5.65 Y-16.56 E29.9393
G1 X-3.53 Y-14.44 E30.0861
G1 X-3.87 Y-14.44 E30.1027
G1 X-3.87 Y-14.22 E30.1135
G1 X-5.99 Y-16.34 E30.2602
G1 X-5.99 Y-15.77 E30.2881
G1 X-3.87 Y-13.65 E30.4348
G1 X-3.87 Y-13.09 E30.4622
G1 X-5.99 Y-15.21 E30.6090
G1 X-5.99 Y-14.64 E30.6369
G1 X-3.87 Y-12.52 E30.7836
G1 X-3.87 Y-11.95 E30.8115
G1 X-5.99 Y-14.07 E30.9582
G1 X-5.99 Y-13.50 E30.9861
G1 X-3.87 Y-11.38 E31.1329
G1 X-3.87 Y-10.82 E31.1603
G1 X-5.99 Y-12.94 E31.3070
G1 X-5.99 Y-12.37 E31.3349
G1 X-3.87 Y-10.25 E31.4817
G1 X-3.87 Y-9.68 E31.5095
G1 X-5.99 Y-11.80 E31.6563
G1 X-5.99 Y-11.24 E31.6837
G1 X-3.87 Y-9.12 E31.8304
G1 X-3.87 Y-8.55 E31.8583
G1 X-5.99 Y-10.67 E32.0051
G1 X-5.99 Y-10.10 E32.0330
G1 X-3.87 Y-7.98 E32.1797
G1 X-3.87 Y-7.41 E32.2076
G1 X-5.99 Y-9.53 E32.3543
G1 X-5.99 Y-8.97 E32.3817
G1 X-3.87 Y-6.85 E32.5285
G1 X-3.87 Y-6.28 E32.5564
G1 X-5.99 Y-8.40 E32.7031
G1 X-5.99 Y-7.83 E32.7310
G1 X-3.87 Y-5.71 E32.8777
G1 X-3.87 Y-5.15 E32.9051
G1 X-5.99 Y-7.27 E33.0519
G1 X-5.99 Y-6.70 E33.0798
G1 X-3.87 Y-4.58 E33.2265
G1 X-3.87 Y-4.01 E33.2544
G1 X-5.99 Y-6.13 E33.4011
G1 X-5.99 Y-5.56 E33.4290
G1 X-3.87 Y-3.44 E33.5758
G1 X-3.87 Y-2.88 E33.6032
G1 X-5.99 Y-5.00 E33.7499
G1 X-5.99 Y-4.43 E33.7778
G1 X-3.87 Y-2.31 E33.9245
G1 X-3.87 Y-1.74 E33.9524
G1 X-5.99 Y-3.86 E34.0992
G1 X-5.99 Y-3.30 E34.1266
G1 X-3.87 Y-1.17 E34.2737
G1 X-3.87 Y-.61 E34.3011
G1 X-5.99 Y-2.73 E34.4478
G1 X-5.99 Y-2.16 E34.4757
G1 X-3.87 Y-.04 E34.6224
G1 X-3.87 Y.52 E34.6499
G1 X-5.99 Y-1.60 E34.7966
G1 X-5.99 Y-1.03 E34.8245
G1 X-3.87 Y1.09 E34.9712
G1 X-3.87 Y1.66 E34.9991
G1 X-5.99 Y-.46 E35.1458
G1 X-5.99 Y.11 E35.1737
G1 X-3.87 Y2.23 E35.3205
G1 X-3.87 Y2.79 E35.3479
G1 X-5.99 Y.67 E35.4946
G1 X-5.99 Y1.24 E35.5225
G1 X-3.87 Y3.36 E35.6693
G1 X-3.87 Y3.93 E35.6972
G1 X-5.99 Y1.81 E35.8439
G1 X-5.99 Y2.37 E35.8713
G1 X-3.87 Y4.50 E36.0184
G1 X-3.87 Y5.06 E36.0458
G1 X-5.99 Y2.94 E36.1925
G1 X-5.99 Y3.51 E36.2204
G1 X-3.87 Y5.63 E36.3672
G1 X-3.87 Y6.20 E36.3950
G1 X-5.99 Y4.07 E36.5421
G1 X-5.99 Y4.64 E36.5700
G1 X-3.87 Y6.76 E36.7168
G1 X-3.87 Y7.33 E36.7447
G1 X-5.99 Y5.21 E36.8914
G1 X-5.99 Y5.78 E36.9193
G1 X-3.87 Y7.90 E37.0660
G1 X-3.87 Y8.46 E37.0934
G1 X-6.00 Y6.34 E37.2405
G1 X-6.00 Y6.91 E37.2684
G1 X-3.87 Y9.03 E37.4155
G1 X-3.87 Y9.60 E37.4434
G1 X-6.00 Y7.48 E37.5905
G1 X-6.00 Y8.04 E37.6179
G1 X-3.87 Y10.17 E37.7653
G1 X-3.87 Y10.73 E37.7927
G1 X-6.00 Y8.61 E37.9398
G1 X-6.00 Y9.18 E37.9677
G1 X-3.87 Y11.30 E38.1148
G1 X-3.87 Y11.87 E38.1427
G1 X-6.00 Y9.75 E38.2898
G1 X-6.00 Y10.31 E38.3172
G1 X-3.87 Y12.43 E38.4642
G1 X-3.87 Y13.00 E38.4921
G1 X-6.00 Y10.88 E38.6392
G1 X-6.00 Y11.45 E38.6671
G1 X-3.87 Y13.57 E38.8142
G1 X-3.87 Y14.14 E38.8421
G1 X-6.00 Y12.01 E38.9895
G1 X-6.00 Y12.58 E39.0174
G1 X-3.87 Y14.70 E39.1645
G1 X-3.87 Y15.27 E39.1924
G1 X-6.00 Y13.15 E39.3395
G1 X-6.00 Y13.72 E39.3674
G1 X-3.87 Y15.84 E39.5145
G1 X-3.87 Y16.40 E39.5419
G1 X-6.00 Y14.28 E39.6890
G1 X-6.00 Y14.85 E39.7169
G1 X-4.29 Y16.56 E39.8352
G1 X-4.85 Y16.56 E39.8626
G1 X-6.00 Y15.42 E39.9419
G1 X-6.00 Y15.98 E39.9693
G1 X-5.42 Y16.56 E40.0094
G1 X-5.99 Y16.55 E40.0373
;layer:0.18
G1 Z.450 F420
G1 X-3.27 Y-13.83 F4800
G1 X-3.27 Y-13.83
G1 X6.46 Y-16.90
;structure:shell-inner
G1 X6.46 Y-16.90
G1 X6.46 Y-14.10 E40.1287 F2880
G1 X-.74 Y-14.10 E40.3636
G1 X-3.54 Y-14.10 E40.4550 F3024
G1 X-3.54 Y-6.90 E40.6899
G1 X-3.54 Y3.10 E41.0162 F3168
G1 X-3.54 Y13.10 E41.3425 F3312
G1 X-3.54 Y16.90 E41.4664 F3456
G1 X-6.34 Y16.90 E41.5578
G1 X-6.34 Y13.50 E41.6687
G1 X-6.34 Y-16.90 E42.6606 F3600
G1 X-3.64 Y-16.90 E42.7487
G1 X-1.64 Y-16.90 E42.8140 F2988
G1 X.36 Y-16.90 E42.8792 F2376
G1 X2.36 Y-16.90 E42.9445 F1764
G1 X4.36 Y-16.90 E43.0098 F1152
G1 X6.36 Y-16.90 E43.0750 F540
;structure:shell-outer
G1 X6.86 Y-17.30 E43.0750 F300
G1 X6.86 Y-13.70 E43.1925 F1800
G1 X-3.14 Y-13.70 E43.5188
G1 X-3.14 Y17.30 E44.5302
G1 X-6.74 Y17.30 E44.6477
G1 X-6.74 Y-17.30 E45.7766
G1 X6.76 Y-17.30 E46.2171
G1 X6.36 Y-16.90 E46.2233 F300
G1 X6.12 Y-14.59 F4800
;structure:infill-solid
G1 X6.12 Y-14.59
G1 X5.97 Y-14.44 E46.2302 F1800
G1 X5.40 Y-14.44 E46.2488
G1 X6.12 Y-15.16 E46.2820
G1 X6.12 Y-15.73 E46.3006
G1 X4.83 Y-14.44 E46.3601
G1 X4.26 Y-14.44 E46.3787
G1 X6.12 Y-16.30 E46.4645
G1 X6.12 Y-16.56 E46.4730
G1 X5.81 Y-16.56 E46.4831
G1 X3.69 Y-14.44 E46.5810
G1 X3.12 Y-14.44 E46.5996
G1 X5.24 Y-16.56 E46.6974
G1 X4.67 Y-16.56 E46.7160
G1 X2.55 Y-14.44 E46.8138
G1 X1.97 Y-14.44 E46.8327
G1 X4.09 Y-16.56 E46.9306
G1 X3.52 Y-16.56 E46.9492
G1 X1.40 Y-14.44 E47.0470
G1 X.83 Y-14.44 E47.0656
G1 X2.95 Y-16.56 E47.1634
G1 X2.38 Y-16.56 E47.1820
G1 X.26 Y-14.44 E47.2798
G1 X-.31 Y-14.44 E47.2984
G1 X1.81 Y-16.56 E47.3962
G1 X1.24 Y-16.56 E47.4148
G1 X-.88 Y-14.44 E47.5127
G1 X-1.45 Y-14.44 E47.5313
G1 X.67 Y-16.56 E47.6291
G1 X.10 Y-16.56 E47.6477
G1 X-2.02 Y-14.44 E47.7455
G1 X-2.60 Y-14.44 E47.7644
G1 X-.48 Y-16.56 E47.8623
G1 X-1.05 Y-16.56 E47.8809
G1 X-3.17 Y-14.44 E47.9787
G1 X-6.00 Y-16.18 F4800
G1 X-6.00 Y-16.18
G1 X-5.62 Y-16.56 E47.9962 F1800
G1 X-5.05 Y-16.56 E48.0148
G1 X-6.00 Y-15.61 E48.0586
G1 X-6.00 Y-15.04 E48.0772
G1 X-4.48 Y-16.56 E48.1474
G1 X-3.90 Y-16.56 E48.1663
G1 X-6.00 Y-14.47 E48.2630
G1 X-6.00 Y-13.89 E48.2819
G1 X-3.33 Y-16.56 E48.4051
G1 X-2.76 Y-16.56 E48.4237
G1 X-6.00 Y-13.32 E48.5732
G1 X-6.00 Y-12.75 E48.5918
G1 X-2.19 Y-16.56 E48.7676
G1 X-1.62 Y-16.56 E48.7862
G1 X-3.74 Y-14.44 E48.8840
G1 X-3.88 Y-14.44 E48.8886
G1 X-3.88 Y-14.30 E48.8932
G1 X-6.00 Y-12.18 E48.9910
G1 X-6.00 Y-11.61 E49.0096
G1 X-3.88 Y-13.73 E49.1074
G1 X-3.88 Y-13.16 E49.1260
G1 X-6.00 Y-11.04 E49.2238
G1 X-6.00 Y-10.47 E49.2424
G1 X-3.88 Y-12.59 E49.3403
G1 X-3.88 Y-12.01 E49.3592
G1 X-6.00 Y-9.89 E49.4570
G1 X-6.00 Y-9.32 E49.4756
G1 X-3.88 Y-11.44 E49.5734
G1 X-3.88 Y-10.87 E49.5920
G1 X-6.00 Y-8.75 E49.6899
G1 X-6.00 Y-8.18 E49.7085
G1 X-3.88 Y-10.30 E49.8063
G1 X-3.88 Y-9.73 E49.8249
G1 X-6.00 Y-7.61 E49.9227
G1 X-6.00 Y-7.04 E49.9413
G1 X-3.88 Y-9.16 E50.0391
G1 X-3.88 Y-8.59 E50.0577
G1 X-6.00 Y-6.47 E50.1555
G1 X-6.00 Y-5.90 E50.1741
G1 X-3.88 Y-8.02 E50.2720
G1 X-3.88 Y-7.44 E50.2909
G1 X-6.00 Y-5.32 E50.3887
G1 X-6.00 Y-4.75 E50.4073
G1 X-3.88 Y-6.87 E50.5051
G1 X-3.88 Y-6.30 E50.5237
G1 X-6.00 Y-4.18 E50.6216
G1 X-6.00 Y-3.61 E50.6402
G1 X-3.88 Y-5.73 E50.7380
G1 X-3.88 Y-5.16 E50.7566
G1 X-6.00 Y-3.04 E50.8544
G1 X-6.00 Y-2.47 E50.8730
G1 X-3.88 Y-4.59 E50.9708
G1 X-3.88 Y-4.02 E50.9894
G1 X-6.00 Y-1.90 E51.0872
G1 X-6.00 Y-1.32 E51.1062
G1 X-3.88 Y-3.44 E51.2040
G1 X-3.88 Y-2.87 E51.2226
G1 X-6.00 Y-.75 E51.3204
G1 X-6.00 Y-.18 E51.3390
G1 X-3.88 Y-2.30 E51.4368
G1 X-3.88 Y-1.73 E51.4554
G1 X-6.00 Y.39 E51.5533
G1 X-6.00 Y.96 E51.5719
G1 X-3.88 Y-1.16 E51.6697
G1 X-3.88 Y-.59 E51.6883
G1 X-6.00 Y1.53 E51.7861
G1 X-6.00 Y2.10 E51.8047
G1 X-3.88 Y-.02 E51.9025
G1 X-3.88 Y.56 E51.9214
G1 X-6.00 Y2.67 E52.0190
G1 X-6.00 Y3.25 E52.0380
G1 X-3.88 Y1.13 E52.1358
G1 X-3.88 Y1.70 E52.1544
G1 X-6.00 Y3.82 E52.2522
G1 X-6.00 Y4.39 E52.2708
G1 X-3.88 Y2.27 E52.3686
G1 X-3.88 Y2.84 E52.3872
G1 X-6.00 Y4.96 E52.4851
G1 X-6.00 Y5.53 E52.5037
G1 X-3.88 Y3.41 E52.6015
G1 X-3.88 Y3.98 E52.6201
G1 X-6.00 Y6.10 E52.7179
G1 X-6.00 Y6.67 E52.7365
G1 X-3.88 Y4.55 E52.8343
G1 X-3.88 Y5.13 E52.8533
G1 X-6.00 Y7.25 E52.9511
G1 X-6.00 Y7.82 E52.9697
G1 X-3.88 Y5.70 E53.0675
G1 X-3.88 Y6.27 E53.0861
G1 X-6.00 Y8.39 E53.1839
G1 X-6.00 Y8.96 E53.2025
G1 X-3.88 Y6.84 E53.3003
G1 X-3.88 Y7.41 E53.3189
G1 X-6.00 Y9.53 E53.4168
G1 X-6.00 Y10.10 E53.4354
G1 X-3.88 Y7.98 E53.5332
G1 X-3.88 Y8.55 E53.5518
G1 X-6.00 Y10.67 E53.6496
G1 X-6.00 Y11.25 E53.6685
G1 X-3.88 Y9.13 E53.7664
G1 X-3.88 Y9.70 E53.7850
G1 X-6.00 Y11.82 E53.8828
G1 X-6.00 Y12.39 E53.9014
G1 X-3.88 Y10.27 E53.9992
G1 X-3.88 Y10.84 E54.0178
G1 X-6.00 Y12.96 E54.1156
G1 X-6.00 Y13.53 E54.1342
G1 X-3.88 Y11.41 E54.2320
G1 X-3.88 Y11.98 E54.2506
G1 X-6.00 Y14.10 E54.3485
G1 X-6.00 Y14.67 E54.3671
G1 X-3.88 Y12.55 E54.4649
G1 X-3.88 Y13.12 E54.4835
G1 X-6.00 Y15.24 E54.5813
G1 X-6.00 Y15.82 E54.6002
G1 X-3.88 Y13.70 E54.6981
G1 X-3.88 Y14.27 E54.7167
G1 X-6.00 Y16.39 E54.8145
G1 X-6.00 Y16.56 E54.8200
G1 X-5.60 Y16.56 E54.8331
G1 X-3.88 Y14.84 E54.9124
G1 X-3.88 Y15.41 E54.9310
G1 X-5.03 Y16.56 E54.9841
G1 X-4.46 Y16.56 E55.0027
G1 X-3.88 Y15.98 E55.0295
G1 X-3.88 Y16.56 E55.0484
;layer:0.18
G1 Z.630 F420
G1 X-3.27 Y-13.83 F4800
G1 X-3.27 Y-13.83
G1 X6.46 Y-16.90
;structure:shell-inner
G1 X6.46 Y-16.90
G1 X6.46 Y-14.10 E55.1398 F2880
G1 X-.74 Y-14.10 E55.3747
G1 X-3.54 Y-14.10 E55.4660 F3024
G1 X-3.54 Y-6.90 E55.7010
G1 X-3.54 Y3.10 E56.0272 F3168
G1 X-3.54 Y13.10 E56.3535 F3312
G1 X-3.54 Y16.90 E56.4775 F3456
G1 X-6.34 Y16.90 E56.5689
G1 X-6.34 Y13.50 E56.6798
G1 X-6.34 Y-16.90 E57.6717 F3600
G1 X-3.64 Y-16.90 E57.7598
G1 X-1.64 Y-16.90 E57.8251 F2988
G1 X.36 Y-16.90 E57.8903 F2376
G1 X2.36 Y-16.90 E57.9556 F1764
G1 X4.36 Y-16.90 E58.0208 F1152
G1 X6.36 Y-16.90 E58.0861 F540
;structure:shell-outer
G1 X6.86 Y-17.30 E58.0861 F300
G1 X6.86 Y-13.70 E58.2036 F1800
G1 X-3.14 Y-13.70 E58.5298
G1 X-3.14 Y17.30 E59.5413
G1 X-6.74 Y17.30 E59.6588
G1 X-6.74 Y-17.30 E60.7877
G1 X6.76 Y-17.30 E61.2282
G1 X6.36 Y-16.90 E61.2343 F300
G1 X5.69 Y-16.56 F4800
;structure:infill-solid
G1 X5.69 Y-16.56
G1 X6.12 Y-16.13 E61.2542 F1800
G1 X6.12 Y-15.56 E61.2728
G1 X5.12 Y-16.56 E61.3189
G1 X4.56 Y-16.56 E61.3372
G1 X6.12 Y-14.99 E61.4094
G1 X6.11 Y-14.44 E61.4273
G1 X3.99 Y-16.56 E61.5252
G1 X3.42 Y-16.56 E61.5438
G1 X5.54 Y-14.44 E61.6416
G1 X4.98 Y-14.44 E61.6599
G1 X2.86 Y-16.56 E61.7577
G1 X2.29 Y-16.56 E61.7763
G1 X4.41 Y-14.44 E61.8741
G1 X3.84 Y-14.44 E61.8927
G1 X1.72 Y-16.56 E61.9905
G1 X1.15 Y-16.56 E62.0091
G1 X3.27 Y-14.44 E62.1070
G1 X2.71 Y-14.44 E62.1252
G1 X.59 Y-16.56 E62.2230
G1 X.02 Y-16.56 E62.2416
G1 X2.14 Y-14.44 E62.3395
G1 X1.57 Y-14.44 E62.3581
G1 X-.55 Y-16.56 E62.4559
G1 X-1.11 Y-16.56 E62.4742
G1 X1.01 Y-14.44 E62.5720
G1 X.44 Y-14.44 E62.5906
G1 X-1.68 Y-16.56 E62.6884
G1 X-2.25 Y-16.56 E62.7070
G1 X-.13 Y-14.44 E62.8048
G1 X-.70 Y-14.44 E62.8234
G1 X-2.81 Y-16.56 E62.9210
G1 X-3.38 Y-16.56 E62.9396
G1 X-1.26 Y-14.44 E63.0374
G1 X-1.83 Y-14.44 E63.0560
G1 X-3.95 Y-16.56 E63.1539
G1 X-4.52 Y-16.56 E63.1725
G1 X-2.40 Y-14.44 E63.2703
G1 X-2.96 Y-14.44 E63.2886
G1 X-5.08 Y-16.56 E63.3864
G1 X-5.65 Y-16.56 E63.4050
G1 X-3.53 Y-14.44 E63.5028
G1 X-3.88 Y-14.44 E63.5142
G1 X-3.88 Y-14.22 E63.5214
G1 X-6.00 Y-16.34 E63.6192
G1 X-6.00 Y-15.77 E63.6378
G1 X-3.88 Y-13.65 E63.7357
G1 X-3.88 Y-13.08 E63.7543
G1 X-6.00 Y-15.20 E63.8521
G1 X-6.00 Y-14.64 E63.8703
G1 X-3.88 Y-12.52 E63.9682
G1 X-3.88 Y-11.95 E63.9868
G1 X-6.00 Y-14.07 E64.0846
G1 X-6.00 Y-13.50 E64.1032
G1 X-3.88 Y-11.38 E64.2010
G1 X-3.88 Y-10.82 E64.2193
G1 X-6.00 Y-12.94 E64.3171
G1 X-6.00 Y-12.37 E64.3357
G1 X-3.88 Y-10.25 E64.4335
G1 X-3.88 Y-9.68 E64.4521
G1 X-6.00 Y-11.80 E64.5500
G1 X-6.00 Y-11.24 E64.5682
G1 X-3.88 Y-9.11 E64.6663
G1 X-3.88 Y-8.55 E64.6846
G1 X-6.00 Y-10.67 E64.7824
G1 X-6.00 Y-10.10 E64.8010
G1 X-3.88 Y-7.98 E64.8988
G1 X-3.88 Y-7.41 E64.9174
G1 X-6.00 Y-9.53 E65.0152
G1 X-6.00 Y-8.97 E65.0335
G1 X-3.88 Y-6.85 E65.1313
G1 X-3.88 Y-6.28 E65.1499
G1 X-6.00 Y-8.40 E65.2478
G1 X-6.00 Y-7.83 E65.2663
G1 X-3.88 Y-5.71 E65.3642
G1 X-3.88 Y-5.14 E65.3828
G1 X-6.00 Y-7.27 E65.4808
G1 X-6.00 Y-6.70 E65.4994
G1 X-3.88 Y-4.58 E65.5972
G1 X-3.88 Y-4.01 E65.6158
G1 X-6.00 Y-6.13 E65.7137
G1 X-6.00 Y-5.56 E65.7323
G1 X-3.88 Y-3.44 E65.8301
G1 X-3.88 Y-2.88 E65.8484
G1 X-6.00 Y-5.00 E65.9462
G1 X-6.00 Y-4.43 E65.9648
G1 X-3.88 Y-2.31 E66.0626
G1 X-3.88 Y-1.74 E66.0812
G1 X-6.00 Y-3.86 E66.1790
G1 X-6.00 Y-3.30 E66.1973
G1 X-3.88 Y-1.17 E66.2954
G1 X-3.88 Y-.61 E66.3136
G1 X-6.00 Y-2.73 E66.4114
G1 X-6.00 Y-2.16 E66.4300
G1 X-3.88 Y-.04 E66.5279
G1 X-3.88 Y.53 E66.5465
G1 X-6.00 Y-1.59 E66.6443
G1 X-6.00 Y-1.03 E66.6626
G1 X-3.88 Y1.09 E66.7604
G1 X-3.88 Y1.66 E66.7790
G1 X-6.00 Y-.46 E66.8768
G1 X-6.00 Y.11 E66.8954
G1 X-3.88 Y2.23 E66.9932
G1 X-3.88 Y2.79 E67.0115
G1 X-6.00 Y.67 E67.1093
G1 X-6.00 Y1.24 E67.1279
G1 X-3.88 Y3.36 E67.2257
G1 X-3.88 Y3.93 E67.2443
G1 X-6.00 Y1.81 E67.3422
G1 X-6.00 Y2.38 E67.3608
G1 X-3.88 Y4.50 E67.4586
G1 X-3.88 Y5.06 E67.4769
G1 X-6.00 Y2.94 E67.5747
G1 X-6.00 Y3.51 E67.5933
G1 X-3.88 Y5.63 E67.6911
G1 X-3.88 Y6.20 E67.7097
G1 X-6.00 Y4.08 E67.8075
G1 X-6.00 Y4.64 E67.8258
G1 X-3.88 Y6.76 E67.9236
G1 X-3.88 Y7.33 E67.9422
G1 X-6.00 Y5.21 E68.0400
G1 X-6.00 Y5.78 E68.0586
G1 X-3.88 Y7.90 E68.1565
G1 X-3.88 Y8.46 E68.1747
G1 X-6.00 Y6.34 E68.2726
G1 X-6.00 Y6.91 E68.2912
G1 X-3.88 Y9.03 E68.3890
G1 X-3.88 Y9.60 E68.4076
G1 X-6.00 Y7.48 E68.5054
G1 X-6.00 Y8.05 E68.5240
G1 X-3.88 Y10.17 E68.6218
G1 X-3.88 Y10.73 E68.6401
G1 X-6.00 Y8.61 E68.7379
G1 X-6.00 Y9.18 E68.7565
G1 X-3.88 Y11.30 E68.8543
G1 X-3.88 Y11.87 E68.8729
G1 X-6.00 Y9.75 E68.9708
G1 X-6.00 Y10.31 E68.9890
G1 X-3.88 Y12.43 E69.0869
G1 X-3.88 Y13.00 E69.1055
G1 X-6.00 Y10.88 E69.2033
G1 X-6.00 Y11.45 E69.2219
G1 X-3.88 Y13.57 E69.3197
G1 X-3.88 Y14.14 E69.3383
G1 X-6.00 Y12.02 E69.4361
G1 X-6.00 Y12.58 E69.4544
G1 X-3.88 Y14.70 E69.5522
G1 X-3.88 Y15.27 E69.5708
G1 X-6.00 Y13.15 E69.6686
G1 X-6.00 Y13.72 E69.6872
G1 X-3.88 Y15.84 E69.7851
G1 X-3.88 Y16.40 E69.8033
G1 X-6.00 Y14.28 E69.9011
G1 X-6.00 Y14.85 E69.9197
G1 X-4.29 Y16.56 E69.9987
