;generated by ffslicer 2.2.2 07/18/24 09:08:04
;machine_type: Adventurer 3 Series
;right_extruder_material: PLA
;right_extruder_material_density: 1.24
;filament_diameter0: 1.75
;right_extruder_temperature: 210
;layer_height: 0.18
;perimeter_shells: 2
;top_solid_layers: 4
;bottom_solid_layers: 3
;fill_density: 15%
;fill_pattern: hexagon
;base_print_speed: 60
;travel_speed: 80
;platform_temperature: 50
;right_extruder_temperature_raft0: 0
;right_extruder_temperature_reset: 
;left_extruder_temperature_reset: 
;start gcode
M118 X41.00 Y30.00 Z10.10 T0
M140 S50 T0
M104 S210 T0
M104 S0 T1
M107
G90
G28
M132 X Y Z A B
G1 Z50.000 F420
G161 X Y F3300
M7 T0
M6 T0
M651 S255
;layer_count: 55
M108 T0
G1 X-41.00 Y8.00 F4800
;preExtrude:0.20
M106
G1 Z.200 F420
;structure:pre-extrude
G1 X-41.00 Y8.00 F4800
G1 X-41.00 Y-30.00 E5.5105 F1200
G1 X41.00 Y-30.00 E17.4017
;raft
;layer:0.28
G1 E12.4017 F1500
G1 Z.280 F420
G1 X35.40 Y-24.40 F4200
G1 E17.4017 F1500
;structure:shell-inner
G1 X35.40 Y-24.40 F4200
G1 X35.40 Y-14.40 E17.9093 F600
G1 X35.40 Y-4.40 E18.4168
G1 X35.40 Y4.40 E18.8634
G1 X34.20 Y4.40 E18.9244
G1 X24.20 Y4.40 E19.4319
G1 X14.20 Y4.40 E19.9395
G1 X-35.40 Y4.40 E22.4569
G1 X-35.40 Y-24.40 E23.9186
G1 X25.30 Y-24.40 E26.9995
G1 X27.30 Y-24.40 E27.1010
G1 X29.30 Y-24.40 E27.2025
G1 X31.30 Y-24.40 E27.3040
G1 X33.30 Y-24.40 E27.4055
G1 X35.30 Y-24.40 E27.5070 F540
;structure:shell-outer
G1 X35.80 Y-24.80 E27.5070 F300
G1 X35.80 Y4.80 E29.0094 F600
G1 X-35.80 Y4.80 E32.6434
G1 X-35.80 Y-24.80 E34.1458
G1 X35.70 Y-24.80 E37.7747
G1 X35.30 Y-24.40 E37.7843 F300
G1 X34.69 Y-24.06 F4200
;structure:infill-solid
G1 X34.69 Y-24.06
G1 X35.06 Y-23.69 E37.8109 F600
G1 X35.06 Y-23.13 E37.8393
G1 X34.13 Y-24.06 E37.9060
G1 X33.56 Y-24.06 E37.9350
G1 X35.06 Y-22.56 E38.0426
G1 X35.06 Y-22.00 E38.0711
G1 X33.00 Y-24.06 E38.2189
G1 X32.43 Y-24.06 E38.2478
G1 X35.06 Y-21.43 E38.4366
G1 X35.06 Y-20.86 E38.4655
G1 X31.86 Y-24.06 E38.6952
G1 X31.30 Y-24.06 E38.7237
G1 X35.06 Y-20.30 E38.9935
G1 X35.06 Y-19.73 E39.0225
G1 X30.73 Y-24.06 E39.3333
G1 X30.17 Y-24.06 E39.3617
G1 X35.06 Y-19.17 E39.7127
G1 X35.06 Y-18.60 E39.7416
G1 X29.60 Y-24.06 E40.1335
G1 X29.04 Y-24.06 E40.1620
G1 X35.06 Y-18.04 E40.5941
G1 X35.06 Y-17.47 E40.6230
G1 X28.47 Y-24.06 E41.0960
G1 X27.90 Y-24.06 E41.1249
G1 X35.06 Y-16.90 E41.6389
G1 X35.06 Y-16.34 E41.6673
G1 X27.34 Y-24.06 E42.2214
G1 X26.77 Y-24.06 E42.2504
G1 X35.06 Y-15.77 E42.8454
G1 X35.06 Y-15.21 E42.8738
G1 X26.21 Y-24.06 E43.5091
G1 X25.64 Y-24.06 E43.5380
G1 X35.06 Y-14.64 E44.2141
G1 X35.06 Y-14.08 E44.2426
G1 X25.08 Y-24.06 E44.9589
G1 X24.51 Y-24.06 E44.9878
G1 X35.06 Y-13.51 E45.7451
G1 X35.06 Y-12.95 E45.7735
G1 X23.95 Y-24.06 E46.5710
G1 X23.38 Y-24.06 E46.5999
G1 X35.06 Y-12.38 E47.4383
G1 X35.06 Y-11.81 E47.4672
G1 X22.81 Y-24.06 E48.3465
G1 X22.25 Y-24.06 E48.3749
G1 X35.06 Y-11.25 E49.2944
G1 X35.06 Y-10.68 E49.3233
G1 X21.68 Y-24.06 E50.2837
G1 X21.12 Y-24.06 E50.3121
G1 X35.06 Y-10.12 E51.3127
G1 X35.06 Y-9.55 E51.3417
G1 X20.55 Y-24.06 E52.3832
G1 X19.99 Y-24.06 E52.4116
G1 X35.06 Y-8.98 E53.4937
G1 X35.06 Y-8.42 E53.5221
G1 X19.42 Y-24.06 E54.6447
G1 X18.85 Y-24.06 E54.6736
G1 X35.06 Y-7.85 E55.8371
G1 X35.06 Y-7.29 E55.8656
G1 X18.29 Y-24.06 E57.0693
G1 X17.72 Y-24.06 E57.0982
G1 X35.06 Y-6.72 E58.3429
G1 X35.06 Y-6.16 E58.3713
G1 X17.16 Y-24.06 E59.6561
G1 X16.59 Y-24.06 E59.6850
G1 X35.06 Y-5.59 E61.0108
G1 X35.06 Y-5.03 E61.0392
G1 X16.03 Y-24.06 E62.4051
G1 X15.46 Y-24.06 E62.4341
G1 X35.06 Y-4.46 E63.8409
G1 X35.06 Y-3.89 E63.8699
G1 X14.89 Y-24.06 E65.3176
G1 X14.33 Y-24.06 E65.3461
G1 X35.06 Y-3.33 E66.8340
G1 X35.06 Y-2.76 E66.8629
G1 X13.76 Y-24.06 E68.3918
G1 X13.20 Y-24.06 E68.4203
G1 X35.06 Y-2.20 E69.9893
G1 X35.06 Y-1.63 E70.0183
G1 X12.63 Y-24.06 E71.6283
G1 X12.07 Y-24.06 E71.6567
G1 X35.06 Y-1.07 E73.3069
G1 X35.06 Y-.50 E73.3358
G1 X11.50 Y-24.06 E75.0269
G1 X10.93 Y-24.06 E75.0558
G1 X35.06 Y.07 E76.7878
G1 X35.06 Y.63 E76.8163
G1 X10.37 Y-24.06 E78.5885
G1 X9.80 Y-24.06 E78.6174
G1 X35.06 Y1.20 E80.4305
G1 X35.06 Y1.76 E80.4589
G1 X9.24 Y-24.06 E82.3123
G1 X8.67 Y-24.06 E82.3412
G1 X35.06 Y2.33 E84.2354
G1 X35.06 Y2.89 E84.2639
G1 X8.11 Y-24.06 E86.1983
G1 X7.54 Y-24.06 E86.2272
G1 X35.06 Y3.46 E88.2026
G1 X35.06 Y4.03 E88.2315
G1 X6.97 Y-24.06 E90.2477
G1 X6.41 Y-24.06 E90.2762
G1 X34.53 Y4.06 E92.2946
G1 X33.96 Y4.06 E92.3235
G1 X5.84 Y-24.06 E94.3419
G1 X5.28 Y-24.06 E94.3703
G1 X33.40 Y4.06 E96.3887
G1 X32.83 Y4.06 E96.4177
G1 X4.71 Y-24.06 E98.4361
G1 X4.15 Y-24.06 E98.4645
G1 X32.27 Y4.06 E100.4829
G1 X31.70 Y4.06 E100.5118
G1 X3.58 Y-24.06 E102.5302
G1 X3.02 Y-24.06 E102.5587
G1 X31.13 Y4.06 E104.5767
G1 X30.57 Y4.06 E104.6051
G1 X2.45 Y-24.06 E106.6235
G1 X1.88 Y-24.06 E106.6525
G1 X30.00 Y4.06 E108.6709
G1 X29.44 Y4.06 E108.6993
G1 X1.32 Y-24.06 E110.7177
G1 X.75 Y-24.06 E110.7466
G1 X28.87 Y4.06 E112.7650
G1 X28.31 Y4.06 E112.7935
G1 X.19 Y-24.06 E114.8119
G1 X-.38 Y-24.06 E114.8408
G1 X27.74 Y4.06 E116.8592
G1 X27.17 Y4.06 E116.8881
G1 X-.94 Y-24.06 E118.9062
G1 X-1.51 Y-24.06 E118.9351
G1 X26.61 Y4.06 E120.9535
G1 X26.04 Y4.06 E120.9824
G1 X-2.08 Y-24.06 E123.0009
G1 X-2.64 Y-24.06 E123.0293
G1 X25.48 Y4.06 E125.0477
G1 X24.91 Y4.06 E125.0766
G1 X-3.21 Y-24.06 E127.0950
G1 X-3.77 Y-24.06 E127.1234
G1 X24.35 Y4.06 E129.1418
G1 X23.78 Y4.06 E129.1708
G1 X-4.34 Y-24.06 E131.1892
G1 X-4.90 Y-24.06 E131.2176
G1 X23.21 Y4.06 E133.2356
G1 X22.65 Y4.06 E133.2641
G1 X-5.47 Y-24.06 E135.2825
G1 X-6.04 Y-24.06 E135.3114
G1 X22.08 Y4.06 E137.3298
G1 X21.52 Y4.06 E137.3582
G1 X-6.60 Y-24.06 E139.3767
G1 X-7.17 Y-24.06 E139.4056
G1 X20.95 Y4.06 E141.4240
G1 X20.39 Y4.06 E141.4524
G1 X-7.73 Y-24.06 E143.4708
G1 X-8.30 Y-24.06 E143.4998
G1 X19.82 Y4.06 E145.5182
G1 X19.25 Y4.06 E145.5471
G1 X-8.86 Y-24.06 E147.5651
G1 X-9.43 Y-24.06 E147.5941
G1 X18.69 Y4.06 E149.6125
G1 X18.12 Y4.06 E149.6414
G1 X-10.00 Y-24.06 E151.6598
G1 X-10.56 Y-24.06 E151.6883
G1 X17.56 Y4.06 E153.7067
G1 X16.99 Y4.06 E153.7356
G1 X-11.13 Y-24.06 E155.7540
G1 X-11.69 Y-24.06 E155.7824
G1 X16.43 Y4.06 E157.8008
G1 X15.86 Y4.06 E157.8298
G1 X-12.26 Y-24.06 E159.8482
G1 X-12.82 Y-24.06 E159.8766
G1 X15.29 Y4.06 E161.8946
G1 X14.73 Y4.06 E161.9231
G1 X-13.39 Y-24.06 E163.9415
G1 X-13.96 Y-24.06 E163.9704
G1 X14.16 Y4.06 E165.9888
G1 X13.60 Y4.06 E166.0172
G1 X-14.52 Y-24.06 E168.0357
G1 X-15.09 Y-24.06 E168.0646
G1 X13.03 Y4.06 E170.0830
G1 X12.47 Y4.06 E170.1114
G1 X-15.65 Y-24.06 E172.1298
G1 X-16.22 Y-24.06 E172.1588
G1 X11.90 Y4.06 E174.1772
G1 X11.33 Y4.06 E174.2061
G1 X-16.78 Y-24.06 E176.2241
G1 X-17.35 Y-24.06 E176.2531
G1 X10.77 Y4.06 E178.2715
G1 X10.20 Y4.06 E178.3004
G1 X-17.92 Y-24.06 E180.3188
G1 X-18.48 Y-24.06 E180.3473
G1 X9.64 Y4.06 E182.3657
G1 X9.07 Y4.06 E182.3946
G1 X-19.05 Y-24.06 E184.4130
G1 X-19.61 Y-24.06 E184.4414
G1 X8.51 Y4.06 E186.4598
G1 X7.94 Y4.06 E186.4888
G1 X-20.18 Y-24.06 E188.5072
G1 X-20.74 Y-24.06 E188.5356
G1 X7.38 Y4.06 E190.5540
G1 X6.81 Y4.06 E190.5829
G1 X-21.31 Y-24.06 E192.6014
G1 X-21.88 Y-24.06 E192.6303
G1 X6.24 Y4.06 E194.6487
G1 X5.68 Y4.06 E194.6771
G1 X-22.44 Y-24.06 E196.6955
G1 X-23.01 Y-24.06 E196.7245
G1 X5.11 Y4.06 E198.7429
G1 X4.55 Y4.06 E198.7713
G1 X-23.57 Y-24.06 E200.7897
G1 X-24.14 Y-24.06 E200.8186
G1 X3.98 Y4.06 E202.8370
G1 X3.41 Y4.06 E202.8660
G1 X-24.70 Y-24.06 E204.8840
G1 X-25.27 Y-24.06 E204.9130
G1 X2.85 Y4.06 E206.9314
G1 X2.28 Y4.06 E206.9603
G1 X-25.83 Y-24.06 E208.9784
G1 X-26.40 Y-24.06 E209.0073
G1 X1.72 Y4.06 E211.0257
G1 X1.15 Y4.06 E211.0546
G1 X-26.97 Y-24.06 E213.0730
G1 X-27.53 Y-24.06 E213.1015
G1 X.59 Y4.06 E215.1199
G1 X.02 Y4.06 E215.1488
G1 X-28.10 Y-24.06 E217.1672
G1 X-28.66 Y-24.06 E217.1956
G1 X-.54 Y4.06 E219.2140
G1 X-1.11 Y4.06 E219.2430
G1 X-29.23 Y-24.06 E221.2614
G1 X-29.79 Y-24.06 E221.2898
G1 X-1.68 Y4.06 E223.3079
G1 X-2.24 Y4.06 E223.3363
G1 X-30.36 Y-24.06 E225.3547
G1 X-30.93 Y-24.06 E225.3836
G1 X-2.81 Y4.06 E227.4020
G1 X-3.37 Y4.06 E227.4304
G1 X-31.49 Y-24.06 E229.4488
G1 X-32.06 Y-24.06 E229.4778
G1 X-3.94 Y4.06 E231.4962
G1 X-4.50 Y4.06 E231.5246
G1 X-32.62 Y-24.06 E233.5430
G1 X-33.19 Y-24.06 E233.5720
G1 X-5.07 Y4.06 E235.5904
G1 X-5.64 Y4.06 E235.6193
G1 X-33.75 Y-24.06 E237.6374
G1 X-34.32 Y-24.06 E237.6663
G1 X-6.20 Y4.06 E239.6847
G1 X-6.77 Y4.06 E239.7136
G1 X-34.88 Y-24.06 E241.7317
G1 X-35.06 Y-24.06 E241.7408
G1 X-35.06 Y-23.67 E241.7606
G1 X-7.33 Y4.06 E243.7511
G1 X-7.90 Y4.06 E243.7800
G1 X-35.06 Y-23.10 E245.7295
G1 X-35.06 Y-22.53 E245.7584
G1 X-8.46 Y4.06 E247.6674
G1 X-9.03 Y4.06 E247.6963
G1 X-35.06 Y-21.97 E249.5647
G1 X-35.06 Y-21.40 E249.5936
G1 X-9.60 Y4.06 E251.4211
G1 X-10.16 Y4.06 E251.4495
G1 X-35.06 Y-20.84 E253.2368
G1 X-35.06 Y-20.27 E253.2658
G1 X-10.73 Y4.06 E255.0121
G1 X-11.29 Y4.06 E255.0406
G1 X-35.06 Y-19.71 E256.7467
G1 X-35.06 Y-19.14 E256.7757
G1 X-11.86 Y4.06 E258.4409
G1 X-12.42 Y4.06 E258.4693
G1 X-35.06 Y-18.57 E260.0941
G1 X-35.06 Y-18.01 E260.1225
G1 X-12.99 Y4.06 E261.7066
G1 X-13.56 Y4.06 E261.7356
G1 X-35.06 Y-17.44 E263.2788
G1 X-35.06 Y-16.88 E263.3073
G1 X-14.12 Y4.06 E264.8103
G1 X-14.69 Y4.06 E264.8392
G1 X-35.06 Y-16.31 E266.3013
G1 X-35.06 Y-15.75 E266.3298
G1 X-15.25 Y4.06 E267.7517
G1 X-15.82 Y4.06 E267.7807
G1 X-35.06 Y-15.18 E269.1617
G1 X-35.06 Y-14.61 E269.1906
G1 X-16.38 Y4.06 E270.5311
G1 X-16.95 Y4.06 E270.5600
G1 X-35.06 Y-14.05 E271.8599
G1 X-35.06 Y-13.48 E271.8889
G1 X-17.52 Y4.06 E273.1479
G1 X-18.08 Y4.06 E273.1763
G1 X-35.06 Y-12.92 E274.3951
G1 X-35.06 Y-12.35 E274.4241
G1 X-18.65 Y4.06 E275.6019
G1 X-19.21 Y4.06 E275.6304
G1 X-35.06 Y-11.79 E276.7680
G1 X-35.06 Y-11.22 E276.7970
G1 X-19.78 Y4.06 E277.8938
G1 X-20.34 Y4.06 E277.9222
G1 X-35.06 Y-10.65 E278.9784
G1 X-35.06 Y-10.09 E279.0068
G1 X-20.91 Y4.06 E280.0225
G1 X-21.47 Y4.06 E280.0509
G1 X-35.06 Y-9.52 E281.0260
G1 X-35.06 Y-8.96 E281.0545
G1 X-22.04 Y4.06 E281.9891
G1 X-22.61 Y4.06 E282.0180
G1 X-35.06 Y-8.39 E282.9116
G1 X-35.06 Y-7.83 E282.9401
G1 X-23.17 Y4.06 E283.7935
G1 X-23.74 Y4.06 E283.8225
G1 X-35.06 Y-7.26 E284.6350
G1 X-35.06 Y-6.69 E284.6639
G1 X-24.30 Y4.06 E285.4359
G1 X-24.87 Y4.06 E285.4648
G1 X-35.06 Y-6.13 E286.1962
G1 X-35.06 Y-5.56 E286.2252
G1 X-25.43 Y4.06 E286.9161
G1 X-26.00 Y4.06 E286.9450
G1 X-35.06 Y-5.00 E287.5953
G1 X-35.06 Y-4.43 E287.6242
G1 X-26.57 Y4.06 E288.2336
G1 X-27.13 Y4.06 E288.2621
G1 X-35.06 Y-3.87 E288.8313
G1 X-35.06 Y-3.30 E288.8602
G1 X-27.70 Y4.06 E289.3885
G1 X-28.26 Y4.06 E289.4169
G1 X-35.06 Y-2.74 E289.9050
G1 X-35.06 Y-2.17 E289.9339
G1 X-28.83 Y4.06 E290.3811
G1 X-29.39 Y4.06 E290.4096
G1 X-35.06 Y-1.60 E290.8162
G1 X-35.06 Y-1.04 E290.8446
G1 X-29.96 Y4.06 E291.2107
G1 X-30.53 Y4.06 E291.2396
G1 X-35.06 Y-.47 E291.5648
G1 X-35.06 Y.09 E291.5932
G1 X-31.09 Y4.06 E291.8782
G1 X-31.66 Y4.06 E291.9071
G1 X-35.06 Y.66 E292.1512
G1 X-35.06 Y1.22 E292.1796
G1 X-32.22 Y4.06 E292.3834
G1 X-32.79 Y4.06 E292.4124
G1 X-35.06 Y1.79 E292.5753
G1 X-35.06 Y2.36 E292.6043
G1 X-33.35 Y4.06 E292.7266
G1 X-33.92 Y4.06 E292.7556
G1 X-35.06 Y2.92 E292.8374
G1 X-35.06 Y3.49 E292.8663
G1 X-34.49 Y4.06 E292.9072
G1 X-35.06 Y4.05 E292.9362
G1 E287.9362 F1500
G1 X35.40 Y7.60 F4200
G1 E292.9362 F1500
;structure:shell-inner
G1 X35.40 Y7.60 F4200
G1 X35.40 Y17.60 E293.4437 F600
G1 X35.40 Y24.40 E293.7889
G1 X32.20 Y24.40 E293.9513
G1 X22.20 Y24.40 E294.4588
G1 X12.20 Y24.40 E294.9664
G1 X2.20 Y24.40 E295.4740
G1 X-35.40 Y24.40 E297.3823
G1 X-35.40 Y7.60 E298.2350
G1 X25.30 Y7.60 E301.3158
G1 X27.30 Y7.60 E301.4173
G1 X29.30 Y7.60 E301.5188
G1 X31.30 Y7.60 E301.6203
G1 X33.30 Y7.60 E301.7218
G1 X35.30 Y7.60 E301.8233 F540
;structure:shell-outer
G1 X35.80 Y7.20 E301.8233 F300
G1 X35.80 Y24.80 E302.7166 F600
G1 X-35.80 Y24.80 E306.3507
G1 X-35.80 Y7.20 E307.2439
G1 X35.70 Y7.20 E310.8729
G1 X35.30 Y7.60 E310.8825 F300
G1 X34.67 Y7.94 F4200
;structure:infill-solid
G1 X34.67 Y7.94
G1 X35.06 Y8.32 E310.9101 F600
G1 X35.06 Y8.89 E310.9390
G1 X34.11 Y7.94 E311.0072
G1 X33.54 Y7.94 E311.0361
G1 X35.06 Y9.46 E311.1452
G1 X35.06 Y10.03 E311.1742
G1 X32.97 Y7.94 E311.3242
G1 X32.40 Y7.94 E311.3531
G1 X35.06 Y10.60 E311.5441
G1 X35.06 Y11.17 E311.5730
G1 X31.83 Y7.94 E311.8049
G1 X31.26 Y7.94 E311.8338
G1 X35.06 Y11.74 E312.1065
G1 X35.06 Y12.30 E312.1350
G1 X30.69 Y7.94 E312.4483
G1 X30.13 Y7.94 E312.4767
G1 X35.06 Y12.87 E312.8306
G1 X35.06 Y13.44 E312.8595
G1 X29.56 Y7.94 E313.2543
G1 X28.99 Y7.94 E313.2833
G1 X35.06 Y14.01 E313.7189
G1 X35.06 Y14.58 E313.7479
G1 X28.42 Y7.94 E314.2245
G1 X27.85 Y7.94 E314.2534
G1 X35.06 Y15.15 E314.7709
G1 X35.06 Y15.72 E314.7999
G1 X27.28 Y7.94 E315.3583
G1 X26.71 Y7.94 E315.3873
G1 X35.06 Y16.28 E315.9862
G1 X35.06 Y16.85 E316.0152
G1 X26.15 Y7.94 E316.6547
G1 X25.58 Y7.94 E316.6837
G1 X35.06 Y17.42 E317.3641
G1 X35.06 Y17.99 E317.3931
G1 X25.01 Y7.94 E318.1145
G1 X24.44 Y7.94 E318.1434
G1 X35.06 Y18.56 E318.9057
G1 X35.06 Y19.13 E318.9346
G1 X23.87 Y7.94 E319.7378
G1 X23.30 Y7.94 E319.7667
G1 X35.06 Y19.70 E320.6109
G1 X35.06 Y20.26 E320.6393
G1 X22.73 Y7.94 E321.5239
G1 X22.17 Y7.94 E321.5524
G1 X35.06 Y20.83 E322.4776
G1 X35.06 Y21.40 E322.5065
G1 X21.60 Y7.94 E323.4727
G1 X21.03 Y7.94 E323.5016
G1 X35.06 Y21.97 E324.5087
G1 X35.06 Y22.54 E324.5376
G1 X20.46 Y7.94 E325.5856
G1 X19.89 Y7.94 E325.6145
G1 X35.06 Y23.11 E326.7034
G1 X35.06 Y23.67 E326.7318
G1 X19.32 Y7.94 E327.8612
G1 X18.75 Y7.94 E327.8902
G1 X34.88 Y24.06 E329.0477
G1 X34.31 Y24.06 E329.0766
G1 X18.19 Y7.94 E330.2336
G1 X17.62 Y7.94 E330.2626
G1 X33.74 Y24.06 E331.4196
G1 X33.17 Y24.06 E331.4486
G1 X17.05 Y7.94 E332.6056
G1 X16.48 Y7.94 E332.6346
G1 X32.60 Y24.06 E333.7916
G1 X32.03 Y24.06 E333.8206
G1 X15.91 Y7.94 E334.9776
G1 X15.34 Y7.94 E335.0066
G1 X31.46 Y24.06 E336.1636
G1 X30.90 Y24.06 E336.1921
G1 X14.78 Y7.94 E337.3491
G1 X14.21 Y7.94 E337.3781
G1 X30.33 Y24.06 E338.5351
G1 X29.76 Y24.06 E338.5641
G1 X13.64 Y7.94 E339.7211
G1 X13.07 Y7.94 E339.7501
G1 X29.19 Y24.06 E340.9071
G1 X28.62 Y24.06 E340.9361
G1 X12.50 Y7.94 E342.0932
G1 X11.93 Y7.94 E342.1221
G1 X28.05 Y24.06 E343.2791
G1 X27.49 Y24.06 E343.3076
G1 X11.36 Y7.94 E344.4650
G1 X10.80 Y7.94 E344.4935
G1 X26.92 Y24.06 E345.6505
G1 X26.35 Y24.06 E345.6795
G1 X10.23 Y7.94 E346.8365
G1 X9.66 Y7.94 E346.8655
G1 X25.78 Y24.06 E348.0225
G1 X25.21 Y24.06 E348.0515
G1 X9.09 Y7.94 E349.2085
G1 X8.52 Y7.94 E349.2374
G1 X24.64 Y24.06 E350.3945
G1 X24.07 Y24.06 E350.4234
G1 X7.95 Y7.94 E351.5805
G1 X7.39 Y7.94 E351.6090
G1 X23.51 Y24.06 E352.7660
G1 X22.94 Y24.06 E352.7950
G1 X6.82 Y7.94 E353.9520
G1 X6.25 Y7.94 E353.9809
G1 X22.37 Y24.06 E355.1380
G1 X21.80 Y24.06 E355.1669
G1 X5.68 Y7.94 E356.3240
G1 X5.11 Y7.94 E356.3529
G1 X21.23 Y24.06 E357.5100
G1 X20.66 Y24.06 E357.5390
G1 X4.54 Y7.94 E358.6960
G1 X3.97 Y7.94 E358.7250
G1 X20.09 Y24.06 E359.8820
G1 X19.53 Y24.06 E359.9104
G1 X3.41 Y7.94 E361.0675
G1 X2.84 Y7.94 E361.0964
G1 X18.96 Y24.06 E362.2535
G1 X18.39 Y24.06 E362.2825
G1 X2.27 Y7.94 E363.4395
G1 X1.70 Y7.94 E363.4685
G1 X17.82 Y24.06 E364.6255
G1 X17.25 Y24.06 E364.6545
G1 X1.13 Y7.94 E365.8115
G1 X.56 Y7.94 E365.8404
G1 X16.68 Y24.06 E366.9975
G1 X16.11 Y24.06 E367.0264
G1 X-.01 Y7.94 E368.1835
G1 X-.57 Y7.94 E368.2120
G1 X15.55 Y24.06 E369.3690
G1 X14.98 Y24.06 E369.3980
G1 X-1.14 Y7.94 E370.5550
G1 X-1.71 Y7.94 E370.5839
G1 X14.41 Y24.06 E371.7410
G1 X13.84 Y24.06 E371.7699
G1 X-2.28 Y7.94 E372.9270
G1 X-2.85 Y7.94 E372.9559
G1 X13.27 Y24.06 E374.1130
G1 X12.70 Y24.06 E374.1419
G1 X-3.42 Y7.94 E375.2990
G1 X-3.99 Y7.94 E375.3280
G1 X12.14 Y24.06 E376.4854
G1 X11.57 Y24.06 E376.5143
G1 X-4.55 Y7.94 E377.6714
G1 X-5.12 Y7.94 E377.7003
G1 X11.00 Y24.06 E378.8574
G1 X10.43 Y24.06 E378.8863
G1 X-5.69 Y7.94 E380.0434
G1 X-6.26 Y7.94 E380.0723
G1 X9.86 Y24.06 E381.2294
G1 X9.29 Y24.06 E381.2583
G1 X-6.83 Y7.94 E382.4154
G1 X-7.40 Y7.94 E382.4443
G1 X8.72 Y24.06 E383.6014
G1 X8.16 Y24.06 E383.6298
G1 X-7.96 Y7.94 E384.7869
G1 X-8.53 Y7.94 E384.8158
G1 X7.59 Y24.06 E385.9729
G1 X7.02 Y24.06 E386.0018
G1 X-9.10 Y7.94 E387.1589
G1 X-9.67 Y7.94 E387.1878
G1 X6.45 Y24.06 E388.3449
G1 X5.88 Y24.06 E388.3738
G1 X-10.24 Y7.94 E389.5309
G1 X-10.81 Y7.94 E389.5598
